app/assets/v2/images/avatar/HairStyle/womanhair5-3596EC.svg

<?xml version="1.0" standalone="no"?><!-- Generator: Gravit.io --><svg xmlns="http://www.w3.org/2000/svg" xmlns:xlink="http://www.w3.org/1999/xlink" style="isolation:isolate" viewBox="0 0 899.2 1499.2" width="899.2" height="1499.2"><defs><clipPath id="_clipPath_I93jH9X6ZOsxKuADSKoeiPe24Wt9W7IR"><rect width="899.2" height="1499.2"/></clipPath></defs><g clip-path="url(#_clipPath_I93jH9X6ZOsxKuADSKoeiPe24Wt9W7IR)"><path d=" M 828.438 1022.5 C 839.838 1022.5 848.838 1012.8 847.938 1001.4 L 798.638 376.4 C 794.138 245.4 698.438 167.2 609.638 122.7 C 514.838 75.1 402.138 75.1 307.338 122.7 C 218.638 167.1 122.938 245.3 118.438 376.3 L 69.138 1001.3 C 68.238 1012.7 77.238 1022.4 88.638 1022.4 L 217.938 1022.4 C 228.738 1022.4 237.538 1013.6 237.538 1002.8 L 237.538 487.3 C 237.538 454.1 264.438 427.3 297.538 427.3 L 458.538 427.3 L 619.538 427.3 C 652.738 427.3 679.538 454.2 679.538 487.3 L 679.538 1002.8 C 679.538 1013.6 688.338 1022.4 699.138 1022.4 L 828.438 1022.4 L 828.438 1022.5 Z " fill="rgb(53,150,236)" vector-effect="non-scaling-stroke" stroke-width="26.9" stroke="rgb(0,0,0)" stroke-linejoin="miter" stroke-linecap="butt" stroke-miterlimit="10"/></g></svg>

<svg xmlns="http://www.w3.org/2000/svg" style="isolation:isolate" width="899.2" height="1499.2"><defs><clipPath id="a"><path d="M0 0h899.2v1499.2H0z"/></clipPath></defs><g clip-path="url(#a)"><path d="M828.438 1022.5c11.4 0 20.4-9.7 19.5-21.1l-49.3-625c-4.5-131-100.2-209.2-189-253.7-94.8-47.6-207.5-47.6-302.3 0-88.7 44.4-184.4 122.6-188.9 253.6l-49.3 625c-.9 11.4 8.1 21.1 19.5 21.1h129.3c10.8 0 19.6-8.8 19.6-19.6V487.3c0-33.2 26.9-60 60-60h322c33.2 0 60 26.9 60 60v515.5c0 10.8 8.8 19.6 19.6 19.6h129.3v.1z" fill="#3596EC" vector-effect="non-scaling-stroke" stroke-width="26.9" stroke="#000" stroke-miterlimit="10"/></g></svg>
